X:1
T:Title
%%score { ( 1 3 ) | ( 2 4 ) }
L:1/8
M:4/4
K:C
V:1 treble nm="Grand Piano"
V:3 treble 
V:2 bass 
V:4 bass 
V:1
 z4 z2[Q:1/4=94] [CE][DF] | [EG]2 [EG][EG] [EG]2 [Gc]d | e2 [Ac][FA] [EG]2 [EG][Ec] | %3
 [FB]2 [FB][Fd] [FA]2 [FA][FB] | c4 z4 | [EG]2 [EG][EG] [EG]2 [Gc]d | e2 [Ac][FA] [EG]2 [EG][EA] | %7
 [EB]2 [EB][Ee] [EB]2 [_EA][E^F] | E6 ee | e2 dB A2 AB | [Ed]2 [Ec][FA] [EG]2 [EG][EG] | %11
 A2 AA B2 BB |[M:9/8] B3- B F2- F[FA][FB] |[M:4/4] [Ec]2 [Fc][Gc] [Ac]2 [Gc][Ac] | %14
 [_Bc]2 [Bd][Be] [Af]2 [Ac][Ad] | e2 Bc d2 AB |[M:3/4] [Ec]6 |[M:1/4] [EG][Ec] | %18
[M:4/4] B2 BB B2 Gd | [Ec]2 [Ec][Ec] [Ec]2 [Ec][GB] | A2 AA [^Fe]2 [Fd][Fc] | %21
[M:9/8] c3- c B2- BAB |[M:4/4] [Ec]2 [Fc][Gc] [Ac]2 [Gc][Ac] | [_Bc]2 [Bd][Be] [Af]2 [Ac][Ad] | %24
 e2 Bc d2 AB |[M:7/4] [Ec]6 z2 z2 z4 |] %26
V:2
 z4 z2 [C,G,][C,G,] | [C,C]2 [C,C][C,C] [C,C]2 [E,C][K:treble][G,B,G] | %2
 [CG]2[K:bass] [F,C][F,C] [C,C]2 [C,C][C,G,] | [G,,G,]2 [G,,G,][G,,G,] [G,,G,]2 [G,,G,][G,,G,] | %4
 z4 z2 .C2 | [C,C]2 [C,C][C,C] [C,C]2 [E,C][K:treble][G,B,G] | %6
 [CG]2[K:bass] [F,C][F,C] [C,C]2 [C,G,][C,G,] | [B,,G,]2 [B,,G,][B,,G,] [B,,G,]2 [B,,^F,][B,,A,] | %8
 [E,G,]6 [E,G,E][E,G,E] | [G,B,F]2 [G,B,F][G,B,F] [G,DF]2 [G,DF][G,DF] | %10
 [C,C]2 [C,C][C,C] [C,C]2 [C,C][C,C] | [F,CF]2 [F,CF][F,CF] [F,A,_E]2 [F,A,E][F,A,E] | %12
[M:9/8] E6- E/ z/ z z |[M:4/4] [C,G,]2 [D,C][D,C] [F,C]2 [E,C][F,C] | %14
 [G,C]2 [C,C][C,C] [F,C]2 [F,C][F,C] | [G,CG]2 [G,CE][G,CE] [G,B,F]2 [G,F][G,F] | %16
[M:3/4][K:bass] [C,G,]6 |[M:1/4] [C,G,][C,G,] | %18
[M:4/4][K:treble] [G,F]2 [G,F][G,F] [G,F]2 [G,B,F][G,B,F] | [C,C]2 [C,C][C,C] [C,C]2 [C,C][E,C] | %20
 [F,CF]2 [F,CF][F,CF] [D,D]2 [D,D][D,D] |[M:9/8][K:treble] G6- G/ z/ z z | %22
[M:4/4][K:bass] [C,G,]2 [D,C][D,C] [F,C]2 [E,C][F,C] | [G,C]2 [C,C][C,C] [F,C]2 [F,C][F,C] | %24
 [G,CG]2 [G,CE][G,CE] [G,B,F]2 [G,F][G,F] |[M:7/4][K:bass] [C,G,]6 z2 z2 z4 |] %26
V:3
 x8 | x8 | x8 | x8 | E4- [EG]2 EF | x8 | x8 | x8 | x8 | x8 | x8 | x8 |[M:9/8] x9 |[M:4/4] x8 | x8 | %15
 x8 |[M:3/4] x6 |[M:1/4] x2 |[M:4/4] x8 | x8 | x8 |[M:9/8] x9 |[M:4/4] x8 | x8 | x8 |[M:7/4] x14 |] %26
V:4
 x8 | x7[K:treble] x | x2[K:bass] x6 | x8 | [C,G,]6 [C,G,]-[C,G,D] | x7[K:treble] x | %6
 x2[K:bass] x6 | x8 | x8 | x8 | x8 | x8 |[M:9/8] [E,^G,]3- [E,G,] [D,=G,]2- [D,G,][G,,G,][G,,G,] | %13
[M:4/4] x8 | x8 | x8 |[M:3/4][K:bass] x6 |[M:1/4] x2 |[M:4/4][K:treble] x8 | x8 | x8 | %21
[M:9/8][K:treble] [G,D]6- [G,D][G,DF][G,DF] |[M:4/4][K:bass] x8 | x8 | x8 |[M:7/4][K:bass] x14 |] %26

